css/img/logos/Team7-Prezi.svg

<svg xmlns="http://www.w3.org/2000/svg" viewBox="0 0 658 217"><path fill="#727272" d="M231.8 63.8c-13 0-24.1 4.6-33.1 13.8-9.3 9.2-13.8 20.3-13.8 33.3 0 12.9 4.5 24 13.8 33 9.1 9.2 20.2 13.8 33.1 13.8 12.9 0 24-4.7 33.1-13.8 9.2-9.1 13.7-20.2 13.7-33 0-13-4.5-24.1-13.7-33.3-9.1-9.1-20.2-13.8-33.1-13.8zm30 77c-8.3 8.2-18.4 12.3-30 12.3-11.7 0-21.7-4.1-29.9-12.3-8.3-8.2-12.5-18.3-12.5-29.9 0-11.8 4.1-21.7 12.5-30 8.1-8.3 18.2-12.5 29.9-12.5 11.6 0 21.6 4.1 30 12.5 8.2 8.2 12.2 18.2 12.2 30 0 11.6-4 21.6-12.2 29.9zm-30-67.6c-10.3 0-19.3 3.6-26.7 11-7.4 7.4-11 16.3-11 26.7 0 10.3 3.6 19.2 11 26.6 7.4 7.4 16.4 11.1 26.7 11.1 10.5 0 19.2-3.7 26.6-11.1 7.4-7.4 11.1-16.3 11.1-26.6 0-10.4-3.7-19.3-11.1-26.7-7.4-7.4-16.1-11-26.6-11zm32.9 39.3c-.3 9.2-4 16.8-10.8 22.9-6.9 6.1-14.8 9-23.9 8.4-9.2-.5-16.8-4.1-22.9-10.8-6-6.9-8.9-14.8-8.4-24 .5-9.1 4.1-16.7 11-22.8 6.6-6.1 14.7-8.9 23.9-8.5 9 .4 16.6 4.1 22.7 10.9 6.1 6.9 9 14.8 8.4 23.9zM283.5 89c-2.8-6.9-6.9-12.8-11.9-17.9-5.3-5.2-11.2-9.2-17.9-12-6.9-3-14.3-4.4-21.9-4.4-7.7 0-14.9 1.5-22 4.4-6.7 2.9-12.7 6.9-17.8 12-5.2 5.2-9.1 11.1-11.9 17.9-3.1 6.9-4.4 14.1-4.4 21.8 0 7.6 1.4 14.9 4.4 21.9 2.9 6.6 6.8 12.7 11.9 17.8 5.2 5.2 11.2 9.2 17.8 12 7.1 3 14.3 4.4 22 4.4 7.6 0 15-1.5 21.9-4.4 6.7-2.9 12.7-6.9 17.9-12 5.1-5.2 9.2-11.2 11.9-17.8 3.1-7 4.5-14.3 4.5-21.9.1-7.6-1.4-14.9-4.5-21.8zm-4.2 41.9c-2.6 6.1-6.3 11.6-11.1 16.4-4.7 4.7-10.1 8.4-16.4 11.1-6.3 2.6-13 4-20.1 4-7 0-13.7-1.4-20.1-4-6.2-2.6-11.6-6.3-16.5-11.1-4.6-4.8-8.4-10.2-11-16.4-2.8-6.4-4-13.1-4-20.1 0-7.1 1.3-13.7 4-20.2 2.5-6.1 6.3-11.6 11-16.4 4.9-4.8 10.2-8.4 16.5-11.1 6.3-2.7 13.1-4 20.1-4 7.1 0 13.7 1.3 20.1 4 6.2 2.6 11.6 6.3 16.4 11.1 4.7 4.8 8.4 10.2 11.1 16.4 2.7 6.4 4.1 13.1 4.1 20.2s-1.3 13.7-4.1 20.1z"/><path fill="#989898" d="M207.6 123.8c.8 1.5 1.7 2.9 2.7 4.2V93.7c-4 4.9-6 10.7-6 17.1.1 4.8 1.1 9.2 3.3 13zm8.9 9.8l.1.1c1.9 1.2 3.9 2.3 6 3V84.9c-2.2.8-4.2 1.8-6.1 3.1v45.6zm12.4-50.1v54.6c.9.2 2 .2 3 .2s2.1 0 3-.2V83.5c-1-.1-2-.2-3.1-.2-.9.1-1.9.1-2.9.2zm12.3 53.2c2.2-.7 4.1-1.8 6-3l.1-.1V88.1c-1.9-1.3-4-2.4-6.1-3.1v51.7zm12.3-43v34.2c1.1-1.3 2-2.7 2.7-4.1 2.1-3.9 3.1-8.3 3.1-13 0-6.4-1.9-12.1-5.8-17.1z"/><path d="M348.2 121.5h-3.3V138h-10.7V83.5h14c11.2 0 21.6 7.8 21.6 19s-10.4 19-21.6 19zm.3-28.5H345v19h3.5c5.8 0 10.4-4.1 10.4-9.5s-4.6-9.5-10.4-9.5zm41.6 19.5V138h-10.4v-23.9c0-6-2.2-10.2-6.9-13.8l8.7-5.4c2.5 2.1 4.3 4.6 5.3 6.6 1-1 6.7-6.7 13.2-6.5l2 10.5c-6.7 0-11.1 5.8-11.9 7zM426 130c4 0 7.5-2.1 9.3-4.2l5.9 5.8c-2.4 2.9-7.4 7.5-16.1 7.5-12.5 0-18.7-10.6-18.7-22.1 0-11.8 8-22.1 19.8-22.1 8.3 0 15.4 4.8 15.4 12.2 0 10.2-10.7 15.3-24.6 15.1 1.2 5.1 4.2 7.8 9 7.8zm6.2-22.1c0-2.5-2.3-4.3-5.8-4.3-5.2 0-8.9 4.4-9.8 10.6 11.1-.5 15.6-2.9 15.6-6.3zm30.4 20.7h16.9v9.4h-33.1l17.4-32.4h-16v-9.4H480l-17.4 32.4zm31.3-39c-3.5 0-6.2-2.8-6.2-6.2 0-3.4 2.7-6.2 6.2-6.2 3.4 0 6.2 2.7 6.2 6.2 0 3.4-2.8 6.2-6.2 6.2zm-5.2 48.4V96.2h10.4V138h-10.4z" fill="#727272"/><path fill="#989898" d="M219.4 32.5c-2.7.4-5.4 1-8.1 1.7l4.4 16.3c2.1-.6 4.2-1 6.4-1.4l-2.7-16.6zm-39.9 44.4l-14.2-9.2c-1.5 2.3-2.9 4.7-4.2 7.2l15 7.7c1.1-2 2.2-3.9 3.4-5.7m24-40.1c-2.6 1-5.1 2.1-7.6 3.4l7.7 15c1.9-1 3.9-1.9 5.9-2.6l-6-15.8zm-5.6 21.7l-9.2-14.2c-2.3 1.5-4.6 3.1-6.7 4.9l10.6 13.1c1.7-1.3 3.4-2.6 5.3-3.8m-10.2 8.2l-12-11.8c-1.9 1.9-3.8 4-5.5 6.1l13.2 10.6c1.4-1.8 2.8-3.4 4.3-4.9m83.4-4.4l10.7-13c-2.2-1.8-4.5-3.4-6.9-5l-9.1 14.2c1.9 1.2 3.6 2.5 5.3 3.8m-3.2-22.1c-2.4-1.2-4.9-2.4-7.5-3.4l-6.1 15.7c2.1.8 4.1 1.7 6 2.7l7.6-15zm12.5 31.4l13.1-10.7c-1.7-2.1-3.6-4.2-5.5-6.1l-12 11.9c1.5 1.5 3 3.2 4.4 4.9m7.1 10.9l15-7.7c-1.3-2.5-2.6-4.8-4.1-7.1l-14.1 9.2c1.1 1.8 2.2 3.7 3.2 5.6m4.7 12.1l16.3-4.3c-.7-2.7-1.6-5.4-2.6-8l-15.7 6.1c.7 2.1 1.4 4.1 2 6.2m-39.8-60.4c-2.7-.7-5.4-1.3-8.1-1.7l-2.6 16.7c2.2.3 4.3.8 6.5 1.4l4.2-16.4zM236 31.7c-2.7-.1-5.5-.1-8.3 0l.9 16.8c2.2-.1 4.4-.1 6.5 0l.9-16.8zm-64.4 95.4l-16.3 4.3c.7 2.7 1.6 5.3 2.5 7.8l15.8-6c-.8-2-1.4-4-2-6.1m121.9-6.4l16.7 2.6c.4-2.7.7-5.5.9-8.3l-16.8-.9c-.2 2.2-.4 4.4-.8 6.6m-3.3 12.5l15.8 6.1c1-2.6 1.9-5.3 2.6-8l-16.3-4.3c-.7 2.1-1.4 4.2-2.1 6.2m20-34.8l-16.7 2.6c.3 2.1.6 4.3.7 6.5v.1l16.8-.9v-.1c-.1-2.7-.4-5.5-.8-8.2m-26 46.4l14.2 9.2c1.5-2.3 2.9-4.7 4.2-7.2l-15.1-7.6c-1 1.9-2.1 3.8-3.3 5.6M276 155l11.9 11.9c2-2 3.8-4 5.6-6.2l-13.2-10.6c-1.3 1.8-2.8 3.4-4.3 4.9m-10.1 8.2l9.1 14.2c2.3-1.5 4.6-3.2 6.7-4.9L271 159.4c-1.6 1.3-3.3 2.6-5.1 3.8m-92.3-74.7l-15.8-6c-1 2.5-1.8 5.2-2.5 7.8l16.3 4.4c.5-2.1 1.2-4.2 2-6.2m9.7 61.6l-13.1 10.6c1.8 2.2 3.6 4.2 5.6 6.2l12-11.9c-1.6-1.6-3.1-3.2-4.5-4.9m-7.1-10.9l-15 7.7c1.2 2.4 2.6 4.8 4.1 7.1l14.2-9.1c-1.2-1.9-2.3-3.8-3.3-5.7m-6.7-25l-16.8.9c.2 2.8.4 5.5.8 8.1l16.7-2.6c-.3-2.1-.5-4.3-.7-6.4m23.1 45.2l-10.7 13.1c2.2 1.7 4.4 3.4 6.7 4.9l9.3-14.1c-1.8-1.3-3.6-2.6-5.3-3.9M170.2 101l-16.7-2.6c-.4 2.7-.7 5.5-.9 8.2l16.8.9c.2-2.2.5-4.3.8-6.5m84.1 68.1l6 15.8c2.6-1 5.2-2.1 7.7-3.4l-7.7-15c-2 .9-4 1.8-6 2.6m-58.4 12.4c2.5 1.3 5 2.4 7.6 3.4l6-15.8c-2-.8-4-1.7-5.9-2.6l-7.7 15zm31.7 8.5c2.8.1 5.6.1 8.4 0l-.9-16.8c-2.2.1-4.4.1-6.5 0l-1 16.8zm14-17.5l2.6 16.7c2.7-.4 5.4-1 8.1-1.7l-4.3-16.3c-2.1.5-4.2 1-6.4 1.3m-30.3 15c2.6.7 5.3 1.3 8.1 1.7l2.7-16.7c-2.2-.3-4.3-.8-6.4-1.4l-4.4 16.4z"/></svg>

<?xml version="1.0" encoding="utf-8"?>
<!-- Generator: Adobe Illustrator 18.1.1, SVG Export Plug-In . SVG Version: 6.00 Build 0)  -->
<!DOCTYPE svg PUBLIC "-//W3C//DTD SVG 1.1//EN" "http://www.w3.org/Graphics/SVG/1.1/DTD/svg11.dtd">
<svg version="1.1" id="Layer_3" xmlns="http://www.w3.org/2000/svg" xmlns:xlink="http://www.w3.org/1999/xlink" x="0px" y="0px"
	 viewBox="0 0 658 217" enable-background="new 0 0 658 217" xml:space="preserve">
<path fill="#727272" d="M231.8,63.8c-13,0-24.1,4.6-33.1,13.8c-9.3,9.2-13.8,20.3-13.8,33.3c0,12.9,4.5,24,13.8,33
	c9.1,9.2,20.2,13.8,33.1,13.8c12.9,0,24-4.7,33.1-13.8c9.2-9.1,13.7-20.2,13.7-33c0-13-4.5-24.1-13.7-33.3
	C255.8,68.5,244.7,63.8,231.8,63.8z M261.8,140.8c-8.3,8.2-18.4,12.3-30,12.3c-11.7,0-21.7-4.1-29.9-12.3
	c-8.3-8.2-12.5-18.3-12.5-29.9c0-11.8,4.1-21.7,12.5-30c8.1-8.3,18.2-12.5,29.9-12.5c11.6,0,21.6,4.1,30,12.5
	c8.2,8.2,12.2,18.2,12.2,30C274,122.5,270,132.5,261.8,140.8z M231.8,73.2c-10.3,0-19.3,3.6-26.7,11c-7.4,7.4-11,16.3-11,26.7
	c0,10.3,3.6,19.2,11,26.6c7.4,7.4,16.4,11.1,26.7,11.1c10.5,0,19.2-3.7,26.6-11.1c7.4-7.4,11.1-16.3,11.1-26.6
	c0-10.4-3.7-19.3-11.1-26.7C251,76.8,242.3,73.2,231.8,73.2z M264.7,112.5c-0.3,9.2-4,16.8-10.8,22.9c-6.9,6.1-14.8,9-23.9,8.4
	c-9.2-0.5-16.8-4.1-22.9-10.8c-6-6.9-8.9-14.8-8.4-24c0.5-9.1,4.1-16.7,11-22.8c6.6-6.1,14.7-8.9,23.9-8.5c9,0.4,16.6,4.1,22.7,10.9
	C262.4,95.5,265.3,103.4,264.7,112.5z M283.5,89c-2.8-6.9-6.9-12.8-11.9-17.9c-5.3-5.2-11.2-9.2-17.9-12c-6.9-3-14.3-4.4-21.9-4.4
	c-7.7,0-14.9,1.5-22,4.4c-6.7,2.9-12.7,6.9-17.8,12c-5.2,5.2-9.1,11.1-11.9,17.9c-3.1,6.9-4.4,14.1-4.4,21.8
	c0,7.6,1.4,14.9,4.4,21.9c2.9,6.6,6.8,12.7,11.9,17.8c5.2,5.2,11.2,9.2,17.8,12c7.1,3,14.3,4.4,22,4.4c7.6,0,15-1.5,21.9-4.4
	c6.7-2.9,12.7-6.9,17.9-12c5.1-5.2,9.2-11.2,11.9-17.8c3.1-7,4.5-14.3,4.5-21.9C288.1,103.2,286.6,95.9,283.5,89z M279.3,130.9
	c-2.6,6.1-6.3,11.6-11.1,16.4c-4.7,4.7-10.1,8.4-16.4,11.1c-6.3,2.6-13,4-20.1,4c-7,0-13.7-1.4-20.1-4c-6.2-2.6-11.6-6.3-16.5-11.1
	c-4.6-4.8-8.4-10.2-11-16.4c-2.8-6.4-4-13.1-4-20.1c0-7.1,1.3-13.7,4-20.2c2.5-6.1,6.3-11.6,11-16.4c4.9-4.8,10.2-8.4,16.5-11.1
	c6.3-2.7,13.1-4,20.1-4c7.1,0,13.7,1.3,20.1,4c6.2,2.6,11.6,6.3,16.4,11.1c4.7,4.8,8.4,10.2,11.1,16.4c2.7,6.4,4.1,13.1,4.1,20.2
	C283.4,117.9,282.1,124.5,279.3,130.9z"/>
<path fill="#989898" d="M207.6,123.8c0.8,1.5,1.7,2.9,2.7,4.2V93.7c-4,4.9-6,10.7-6,17.1C204.4,115.6,205.4,120,207.6,123.8z
	 M216.5,133.6c0,0,0.1,0.1,0.1,0.1c1.9,1.2,3.9,2.3,6,3V84.9c-2.2,0.8-4.2,1.8-6.1,3.1V133.6z M228.9,83.5v54.6c0,0,0,0,0,0
	c0.9,0.2,2,0.2,3,0.2c1,0,2.1,0,3-0.2c0,0,0,0,0,0V83.5c-1-0.1-2-0.2-3.1-0.2C230.9,83.4,229.9,83.4,228.9,83.5z M241.2,136.7
	c2.2-0.7,4.1-1.8,6-3c0,0,0.1-0.1,0.1-0.1V88.1c-1.9-1.3-4-2.4-6.1-3.1V136.7z M253.5,93.7v34.2c1.1-1.3,2-2.7,2.7-4.1
	c2.1-3.9,3.1-8.3,3.1-13C259.3,104.4,257.4,98.7,253.5,93.7z"/>
<g>
	<path fill="#727272" d="M348.2,121.5h-3.3V138h-10.7V83.5h14c11.2,0,21.6,7.8,21.6,19C369.8,113.7,359.4,121.5,348.2,121.5z
		 M348.5,93h-3.5v19h3.5c5.8,0,10.4-4.1,10.4-9.5C358.9,97.1,354.3,93,348.5,93z"/>
	<path fill="#727272" d="M390.1,112.5V138h-10.4v-23.9c0-6-2.2-10.2-6.9-13.8l8.7-5.4c2.5,2.1,4.3,4.6,5.3,6.6c1-1,6.7-6.7,13.2-6.5
		l2,10.5C395.3,105.5,390.9,111.3,390.1,112.5z"/>
	<path fill="#727272" d="M426,130c4,0,7.5-2.1,9.3-4.2l5.9,5.8c-2.4,2.9-7.4,7.5-16.1,7.5c-12.5,0-18.7-10.6-18.7-22.1
		c0-11.8,8-22.1,19.8-22.1c8.3,0,15.4,4.8,15.4,12.2c0,10.2-10.7,15.3-24.6,15.1C418.2,127.3,421.2,130,426,130z M432.2,107.9
		c0-2.5-2.3-4.3-5.8-4.3c-5.2,0-8.9,4.4-9.8,10.6C427.7,113.7,432.2,111.3,432.2,107.9z"/>
	<path fill="#727272" d="M462.6,128.6h16.9v9.4h-33.1l17.4-32.4h-16v-9.4H480L462.6,128.6z"/>
	<path fill="#727272" d="M493.9,89.6c-3.5,0-6.2-2.8-6.2-6.2c0-3.4,2.7-6.2,6.2-6.2c3.4,0,6.2,2.7,6.2,6.2
		C500.1,86.8,497.3,89.6,493.9,89.6z M488.7,138V96.2h10.4V138H488.7z"/>
</g>
<path fill="#989898" d="M219.4,32.5c-2.7,0.4-5.4,1-8.1,1.7l4.4,16.3c2.1-0.6,4.2-1,6.4-1.4L219.4,32.5z M179.5,76.9l-14.2-9.2
	c-1.5,2.3-2.9,4.7-4.2,7.2l15,7.7C177.2,80.6,178.3,78.7,179.5,76.9 M203.5,36.8c-2.6,1-5.1,2.1-7.6,3.4l7.7,15
	c1.9-1,3.9-1.9,5.9-2.6L203.5,36.8z M197.9,58.5l-9.2-14.2c-2.3,1.5-4.6,3.1-6.7,4.9l10.6,13.1C194.3,61,196,59.7,197.9,58.5
	 M187.7,66.7l-12-11.8c-1.9,1.9-3.8,4-5.5,6.1l13.2,10.6C184.8,69.8,186.2,68.2,187.7,66.7 M271.1,62.3l10.7-13
	c-2.2-1.8-4.5-3.4-6.9-5l-9.1,14.2C267.7,59.7,269.4,61,271.1,62.3 M267.9,40.2c-2.4-1.2-4.9-2.4-7.5-3.4l-6.1,15.7
	c2.1,0.8,4.1,1.7,6,2.7L267.9,40.2z M280.4,71.6l13.1-10.7c-1.7-2.1-3.6-4.2-5.5-6.1l-12,11.9C277.5,68.2,279,69.9,280.4,71.6
	 M287.5,82.5l15-7.7c-1.3-2.5-2.6-4.8-4.1-7.1l-14.1,9.2C285.4,78.7,286.5,80.6,287.5,82.5 M292.2,94.6l16.3-4.3
	c-0.7-2.7-1.6-5.4-2.6-8l-15.7,6.1C290.9,90.5,291.6,92.5,292.2,94.6 M252.4,34.2c-2.7-0.7-5.4-1.3-8.1-1.7l-2.6,16.7
	c2.2,0.3,4.3,0.8,6.5,1.4L252.4,34.2z M236,31.7c-2.7-0.1-5.5-0.1-8.3,0l0.9,16.8c2.2-0.1,4.4-0.1,6.5,0L236,31.7z M171.6,127.1
	l-16.3,4.3c0.7,2.7,1.6,5.3,2.5,7.8l15.8-6C172.8,131.2,172.2,129.2,171.6,127.1 M293.5,120.7l16.7,2.6c0.4-2.7,0.7-5.5,0.9-8.3
	l-16.8-0.9C294.1,116.3,293.9,118.5,293.5,120.7 M290.2,133.2l15.8,6.1c1-2.6,1.9-5.3,2.6-8l-16.3-4.3
	C291.6,129.1,290.9,131.2,290.2,133.2 M310.2,98.4l-16.7,2.6c0.3,2.1,0.6,4.3,0.7,6.5l0,0.1l16.8-0.9l0-0.1
	C310.9,103.9,310.6,101.1,310.2,98.4 M284.2,144.8l14.2,9.2c1.5-2.3,2.9-4.7,4.2-7.2l-15.1-7.6C286.5,141.1,285.4,143,284.2,144.8
	 M276,155l11.9,11.9c2-2,3.8-4,5.6-6.2l-13.2-10.6C279,151.9,277.5,153.5,276,155 M265.9,163.2l9.1,14.2c2.3-1.5,4.6-3.2,6.7-4.9
	l-10.7-13.1C269.4,160.7,267.7,162,265.9,163.2 M173.6,88.5l-15.8-6c-1,2.5-1.8,5.2-2.5,7.8l16.3,4.4
	C172.1,92.6,172.8,90.5,173.6,88.5 M183.3,150.1l-13.1,10.6c1.8,2.2,3.6,4.2,5.6,6.2l12-11.9C186.2,153.4,184.7,151.8,183.3,150.1
	 M176.2,139.2l-15,7.7c1.2,2.4,2.6,4.8,4.1,7.1l14.2-9.1C178.3,143,177.2,141.1,176.2,139.2 M169.5,114.2l-16.8,0.9
	c0.2,2.8,0.4,5.5,0.8,8.1l16.7-2.6C169.9,118.5,169.7,116.3,169.5,114.2 M192.6,159.4l-10.7,13.1c2.2,1.7,4.4,3.4,6.7,4.9l9.3-14.1
	C196.1,162,194.3,160.7,192.6,159.4 M170.2,101l-16.7-2.6c-0.4,2.7-0.7,5.5-0.9,8.2l16.8,0.9C169.6,105.3,169.9,103.2,170.2,101
	 M254.3,169.1l6,15.8c2.6-1,5.2-2.1,7.7-3.4l-7.7-15C258.3,167.4,256.3,168.3,254.3,169.1 M195.9,181.5c2.5,1.3,5,2.4,7.6,3.4
	l6-15.8c-2-0.8-4-1.7-5.9-2.6L195.9,181.5z M227.6,190c2.8,0.1,5.6,0.1,8.4,0l-0.9-16.8c-2.2,0.1-4.4,0.1-6.5,0L227.6,190z
	 M241.6,172.5l2.6,16.7c2.7-0.4,5.4-1,8.1-1.7l-4.3-16.3C245.9,171.7,243.8,172.2,241.6,172.5 M211.3,187.5c2.6,0.7,5.3,1.3,8.1,1.7
	l2.7-16.7c-2.2-0.3-4.3-0.8-6.4-1.4L211.3,187.5z"/>
</svg>
